X:208
T: Es ritten drei Reiter zum Tore hinaus (3-53), S. 140f
N: K1183
O: Luxemburg
S: KINTZELE, Guillaume: An der Ucht, Bd. 3 Luxemburg 1928]
N: in der Quelle mit einer 2. Stimme versehen
R: Trennung]
M: 6/8
L: 1/16
K: F
C2 | F3FF2F2G2A2 | A3GG2G2z2c2 | A8-A2
C2 | F3FF2F2G2A2 | A3GG2G2z2c2 | A8-A2
FA | c3cc2c2d2c2 | c2B2B2B4
c2 | A3AA2A2c2B2 | A2G2G2G4
c2 | A4A2G2F2G2 | F6
G6 | A3BA2G2F2G2 | F8z2

@@@ Tune index: 8262
